X:2
T:ENNISKILLEN DRAGOONS/Sae Braley As I Was Kiss'd Yestreen # 1
M:6/8
L:1/8
Q:116
S:4 X 32 JIG 1,2,3 1
R:JIG
K:Am
|E   |"Am" ABA "/E"      ABd |"Am"   e/^f/g  B "/E" A2c  | "G"  BAB "/D"GAG | "G"   BAB "/D" GAB |!
|"Am" cBc "Em/B" dcd | "Am/C" ede "Dm"  a2g  | "A/E" edc "E" Bcd | "Am"e2A "Am" A2:|!
:"E" ^g | "Am" a2A  "/E"  ABA | "Am" a2A "/E"   A2^f | "G"  g2G "/D"  GAG | "G" BAB "/D"GAB |!
|"Am" cBc "G/B" dcd | "C" ede "F"  a2g  | "Dm" edc "E" Bcd | "Am" e2A "A" A2:||
